X: 1
T: Over the Border
C: Sue Jones
S: printed copy from Dan Wheatley	2015-6-22
N: Setting by Aongas Grant
R: jig
Z: 2015 John Chambers <jc:trillian.mit.edu>
M: 6/8
L: 1/8
K: D
A |\
"D"FAA {Bd}B2A | FAA "D7"d2A | "G"{Bd}B2A "D/f#"d2A | "Em"{Bd}BAF "A7"{G}E2A |\
"D"FAA {Bd}B2A | FAA "Bm"d2A | "Em"{Bd}B2e "A7"cAc | "D"d3- d2 :|
|: {c}d |\
"A"e2A "A7"e2A | "D"{g}fed dcd | "A"e2A "A7"e2a | "D"fed dcd |\
"A"e2A "A7"e2A | "D"{g}fed dcd | "Em"B2e "A7"cAc | "D"d3- d2 :|
